assets/icons/lock.svg

<svg xmlns="http://www.w3.org/2000/svg" viewBox="0 0 16 16" role="presentation" aria-hidden="true"><path d="M11.2147 6.10743C11.4979 6.11041 11.7685 6.22485 11.9679 6.42594C12.1673 6.62704 12.2794 6.89861 12.28 7.1818V12.5809C12.2824 12.866 12.1716 13.1405 11.9719 13.344C11.7722 13.5476 11.4998 13.6636 11.2147 13.6666H4.74126C4.59986 13.6689 4.45948 13.6422 4.32886 13.588C4.19823 13.5338 4.08015 13.4533 3.98195 13.3515C3.87876 13.252 3.79745 13.1321 3.7432 12.9994C3.68895 12.8667 3.66296 12.7242 3.66689 12.5809V7.1818C3.66328 7.03888 3.68942 6.89678 3.74366 6.7645C3.7979 6.63222 3.87904 6.51267 3.98195 6.41342C4.08015 6.31165 4.19823 6.23117 4.32886 6.17697C4.45948 6.12277 4.59986 6.09601 4.74126 6.09837H5.28298V5.03306C5.27924 4.66871 5.35102 4.30753 5.49378 3.97229C5.62771 3.65473 5.82077 3.36552 6.06269 3.12004C6.31394 2.8699 6.61199 2.67169 6.93984 2.53674C7.26769 2.40178 7.61891 2.33274 7.97344 2.33353C8.33855 2.32954 8.70052 2.40132 9.03648 2.54433C9.35846 2.67683 9.65058 2.8726 9.89553 3.12004C10.1374 3.36601 10.3311 3.65507 10.4667 3.97229C10.6095 4.30753 10.6812 4.66871 10.6775 5.03306V6.10743H11.2147ZM9.64393 5.03306C9.64483 4.81344 9.60224 4.59581 9.51861 4.39273C9.43498 4.18965 9.31196 4.00514 9.15666 3.84984C9.00136 3.69454 8.81685 3.57153 8.61377 3.4879C8.4107 3.40427 8.19307 3.36167 7.97344 3.36257C7.75426 3.35999 7.53682 3.40184 7.33425 3.4856C7.13168 3.56935 6.94817 3.69327 6.79481 3.84989C6.63606 4.00283 6.51048 4.18679 6.42586 4.39033C6.34124 4.59388 6.29941 4.81266 6.30295 5.03306V6.10743H9.64393V5.03306ZM8.73729 10.6406C8.83714 10.5412 8.91637 10.4231 8.97044 10.293C9.0245 10.1629 9.05233 10.0234 9.05233 9.88247C9.05233 9.74157 9.0245 9.60206 8.97044 9.47195C8.91637 9.34184 8.83714 9.22369 8.73729 9.12429C8.63732 9.02157 8.51736 8.94042 8.38482 8.88584C8.25228 8.83127 8.10996 8.80442 7.96664 8.80696C7.75446 8.80756 7.5472 8.87097 7.37101 8.98921C7.19481 9.10744 7.05758 9.27521 6.9766 9.47134C6.89563 9.66746 6.87455 9.88318 6.91601 10.0913C6.95748 10.2994 7.05963 10.4905 7.2096 10.6406C7.30942 10.7409 7.42865 10.8198 7.55998 10.8724C7.69132 10.925 7.83201 10.9503 7.97344 10.9466C8.11552 10.9499 8.2568 10.9246 8.38883 10.872C8.52086 10.8194 8.64092 10.7407 8.74182 10.6406H8.73729Z" fill="currentColor"/></svg>

<svg xmlns="http://www.w3.org/2000/svg" aria-hidden="true" viewBox="0 0 16 16"><path fill="currentColor" d="M11.215 6.107a1.077 1.077 0 0 1 1.065 1.075v5.399a1.077 1.077 0 0 1-1.065 1.086H4.74a1.03 1.03 0 0 1-.759-.316 1.03 1.03 0 0 1-.315-.77v-5.4a1.03 1.03 0 0 1 .315-.768 1.03 1.03 0 0 1 .76-.315h.541V5.033a2.6 2.6 0 0 1 .21-1.06 2.7 2.7 0 0 1 .57-.853 2.7 2.7 0 0 1 1.91-.786 2.6 2.6 0 0 1 1.063.21c.322.133.615.329.86.576.241.246.435.535.57.852.144.336.215.697.212 1.061v1.074zM9.644 5.033a1.664 1.664 0 0 0-1.67-1.67 1.62 1.62 0 0 0-1.18.487 1.6 1.6 0 0 0-.491 1.183v1.074h3.34zm-.907 5.608a1.07 1.07 0 0 0 0-1.517 1.05 1.05 0 0 0-.77-.317 1.074 1.074 0 0 0-.407 2.065c.131.053.272.078.413.075a1.06 1.06 0 0 0 .769-.306z"/></svg>
